assets/img/icons/duotone-icons/Media/Volume-full.svg

<?xml version="1.0" encoding="UTF-8"?>
<svg width="24px" height="24px" viewBox="0 0 24 24" version="1.1" xmlns="http://www.w3.org/2000/svg" xmlns:xlink="http://www.w3.org/1999/xlink">
    <!-- Generator: Sketch 52.2 (67145) - http://www.bohemiancoding.com/sketch -->
    <title>Stockholm-icons / Media / Volume-full</title>
    <desc>Created with Sketch.</desc>
    <g id="Stockholm-icons-/-Media-/-Volume-full" stroke="none" stroke-width="1" fill="none" fill-rule="evenodd">
        <rect id="bound" x="0" y="0" width="24" height="24"></rect>
        <path d="M16.3155516,16.1481997 C15.9540268,16.3503696 15.4970619,16.2211868 15.294892,15.859662 C15.0927222,15.4981371 15.2219049,15.0411723 15.5834298,14.8390024 C16.6045379,14.2679841 17.25,13.1909329 17.25,12 C17.25,10.8178416 16.614096,9.74756859 15.6048775,9.17309861 C15.2448979,8.96819005 15.1191879,8.51025767 15.3240965,8.15027801 C15.529005,7.79029835 15.9869374,7.66458838 16.3469171,7.86949694 C17.8200934,8.70806221 18.75,10.2731632 18.75,12 C18.75,13.7396897 17.8061594,15.3146305 16.3155516,16.1481997 Z M16.788778,19.8892305 C16.4155074,20.068791 15.9673493,19.9117581 15.7877887,19.5384876 C15.6082282,19.165217 15.7652611,18.7170589 16.1385317,18.5374983 C18.6312327,17.3383928 20.25,14.815239 20.25,12 C20.25,9.21171818 18.6622363,6.70862302 16.2061077,5.49544344 C15.8347279,5.31200421 15.682372,4.86223455 15.8658113,4.49085479 C16.0492505,4.11947504 16.4990201,3.96711914 16.8703999,4.15055837 C19.8335314,5.61416684 21.75,8.63546229 21.75,12 C21.75,15.3971108 19.7961591,18.4425397 16.788778,19.8892305 Z" id="Combined-Shape" fill="#335EEA" opacity="0.3"></path>
        <path d="M7,16 L3.60776773,15.3215535 C2.67291934,15.1345839 2,14.3137542 2,13.3603922 L2,10.6396078 C2,9.68624577 2.67291934,8.86541613 3.60776773,8.67844645 L7,8 L10.2928932,4.70710678 C10.6834175,4.31658249 11.3165825,4.31658249 11.7071068,4.70710678 C11.8946432,4.89464316 12,5.14899707 12,5.41421356 L12,18.5857864 C12,19.1380712 11.5522847,19.5857864 11,19.5857864 C10.7347835,19.5857864 10.4804296,19.4804296 10.2928932,19.2928932 L7,16 Z" id="Combined-Shape" fill="#335EEA"></path>
    </g>
</svg>

<svg width="24" height="24" viewBox="0 0 24 24" xmlns="http://www.w3.org/2000/svg"><g fill="none" fill-rule="evenodd"><path d="M0 0h24v24H0z"/><path d="M16.316 16.148a.75.75 0 01-.733-1.309A3.248 3.248 0 0017.25 12a3.248 3.248 0 00-1.645-2.827.75.75 0 01.742-1.304A4.748 4.748 0 0118.75 12c0 1.74-.944 3.315-2.434 4.148zm.473 3.741a.75.75 0 01-.65-1.352A7.25 7.25 0 0020.25 12a7.25 7.25 0 00-4.044-6.505.75.75 0 11.664-1.344A8.75 8.75 0 0121.75 12a8.75 8.75 0 01-4.961 7.89z" fill="#335EEA" opacity=".3"/><path d="M7 16l-3.392-.678A2 2 0 012 13.36v-2.72a2 2 0 011.608-1.962L7 8l3.293-3.293A1 1 0 0112 5.414v13.172a1 1 0 01-1.707.707L7 16z" fill="#335EEA"/></g></svg>
